X: 154
T: No_62_Initiation_Song.krn
N: Derived from No_62_Initiation_Song.krn
%%abc-version 2.0
%%abcx-abcm2ps-target-version 5.9.1 (29 Sep 2008)
%%abc-creator hum2abc beta
%%abcx-conversion-date 2019/03/15 08:29:13
%%humdrum-veritas 1484475346
%%humdrum-veritas-data 602942705
%%linebreak <none>
%%barnumbers 0
L: 1/16
M: 3/4
K: E clef=bass
EEE2DD [I:setbarnb 1]| 
D6CC C2G,G, | 
G,6DD D2CC | 
C6^A,A, C2A,A, ||  
[M:2/4]C2A,A, A,2G,G, ||  
[M:3/4]G,6CC C2G,G, | 
F,6G,G, G,3/G,/(F,D,) ||  
 [K:C#] D,6C,C, C,2A,,A,, ||  
[M:2/4]C,2A,,A,, A,,2A,,A,, | 
A,,8 |]  



